X: 292
T: Kan yangge
%%abc-version 2.0
%%abcx-abcm2ps-target-version 5.9.1 (29 Sep 2008)
%%abc-creator hum2abc beta
%%abcx-conversion-date 2013/10/02 07:52:29
%%abc-edited-by Helmut Schaffrath
%%humdrum-veritas 2987442679
%%humdrum-veritas-data 2136359310
%%continueall 1
%%barnumbers 0
L: 1/8
M: 5/8
K: D
z A A A/ B/ [I:setbarnb 1]| 
d> Bd2 | 
e f f/ e< d e/ | 
[M:2/4]f> c B/ A3/ | 
z e c c/ B/ | 
B F A3/ B/ | 
f/ c/ B/ A/F2 | 
f> c B/ c/ B/ A/ | 
B B/ d/F2 | 
B B A B | 
f> c B c | 
B/ c/ B/ A/F2 | 
f> c B/ c/ B/ A/ | 
B B/ d/A2 | 
d c B/ c/ B/ A/ | 
B B/ d/F2 | 
B B/ d/F2 | 
d c B/ c/ B/ A/ | 
B BF2 | 
e c B/ c/ B/ A/ | 
B B/ d/F2 | 
A B/ B/ A B | 
d2d2 | 
z d f f/ f/ e c | 
f Bd2 | 
d f e f | 
d f e c | 
f c B A | 
f f/ a/ e c | 
B B/ F/A2 |]  



